X:128
T: SCHWARZES BAND DU MUSST VERGEHEN
N: E0720
O: Europa, Mitteleuropa, Deutschland, Schlesien
R: Liebes . Lied, Klage, Trost
M: 3/4
L: 1/16
K: G
G2D2 | G4B4A2G2 | A4c4
B2A2 | B4d4c2B2 | A4z4
d2c2 | B2c2d2d2edcB | A4c4
B2A2 | G4B4A3G | G4z4

